cssgg/inpicture.svg

<svg
  width="24"
  height="24"
  viewBox="0 0 24 24"
  fill="none"
  xmlns="http://www.w3.org/2000/svg"
>
  <path d="M20 12H14V17H20V12Z" fill="currentColor" />
  <path
    fill-rule="evenodd"
    clip-rule="evenodd"
    d="M1 6C1 4.89543 1.89543 4 3 4H21C22.1046 4 23 4.89543 23 6V18C23 19.1046 22.1046 20 21 20H3C1.89543 20 1 19.1046 1 18V6ZM3 6H21V18H3L3 6Z"
    fill="currentColor"
  />
</svg>

<svg viewBox="0 0 24 24" xmlns="http://www.w3.org/2000/svg"><g><path d="M20 12h-6v5h6v-5Z"/><path fill-rule="evenodd" d="M1 6c0-1.11.89-2 2-2h18c1.1 0 2 .89 2 2v12c0 1.1-.9 2-2 2H3c-1.11 0-2-.9-2-2V6Zm2 0h18v12H3V6Z"/></g></svg>
